X:1
T:The Death of the Chief  "CYMRU"
M:C|
L:1/8
Q:80
C:
S:Funeral March
K:HP
|: A | \
{GdG}f2{gfg}fe | \
{gef}ed{gBd}B{G}A | \
{GAG}A2{g}B3/2c/2 |
{Gdc}d2{GdG}e2 | | \
{GdG}f2{gfg}fe | \
{gef}ed{gBd}B{G}A |
{GAG}A2{g}B3/2c/2 | \
{Gdc}d2{gdc}d :: \
{GdG}a2{ag}a3/2g/2 |
{a}f2{gfg}f3/2e/2 | \
{Gdc}d2{g}e3/2f/2 | \
{ag}a2f2| |
{GdG}a2{ag}a3/2g/2 | \
{a}f2{g}ef/4d3/4 | \
{g}c2{gBd}B{G}A |
{g}A2{GAG}A2 :|
